X:46
T: Wiedersehen an der Bahre
N: Q0056B
O: Mitteleuropa, Deutschland (BRD) , Rheinprovinz, Hunsrueck
N: Eingeklammerte Note am Zeilenanfang weggelassen.
R: Ballade, Abschied, Enttaeuschung, Tod, Selbstmord
M: 3/4
L: 1/8
K: F
FG | A2A2Bd | c2z
cde | f2e2d2 | c2z
cfe | d3cBd | c2z
AFG | Acc2B2 | A2z
cfe | d3cBd | c2z
AFG | Acc2B2 | A2z2

@@@ Tune index: 922
